images/cover/kingston12-cover.svg

<svg fill="none" height="1200" viewBox="0 0 1800 1200" width="1800" xmlns="http://www.w3.org/2000/svg" xmlns:xlink="http://www.w3.org/1999/xlink"><clipPath id="a"><path d="m475 383h850v434h-850z"/></clipPath><path d="m0 0h1800v1200h-1800z" fill="#444955"/><g clip-path="url(#a)" fill="#fff"><path d="m898.444 817h-.542c-1.939-.058-3.83-.613-5.492-1.612s-3.039-2.409-3.998-4.094c-.818-1.536-1.215-3.261-1.149-5 .065-1.739.589-3.429 1.52-4.9l65.248-111.264c-4.153 2.368-8.563 4.679-13.001 6.862-5.623 2.724-11.346 5.278-17.026 7.574-4.424 1.783-8.819 3.424-13.029 4.836-1.059.353-2.167.531-3.283.528-1.637-.003-3.25-.393-4.708-1.136-1.458-.744-2.72-1.821-3.683-3.144l-3.297-4.636c-.89-1.218-1.473-2.632-1.7-4.124-.227-1.491-.091-3.015.396-4.442.487-1.428 1.312-2.717 2.403-3.758 1.092-1.042 2.418-1.805 3.867-2.226 19.709-5.705 33.952-11.754 46.168-19.514 13.601-8.658 25.689-18.957 37.42-28.914 2.827-2.396 6.411-3.715 10.118-3.723 3.352-.011 6.614 1.065 9.304 3.067l3.63 2.696c1.95 1.437 3.29 3.55 3.76 5.924.47 2.375.04 4.841-1.21 6.914-5.83 9.691-12.577 20.874-20.236 33.55-8.563 14.265-17.34 28.929-26.003 43.721-8.662 14.793-17.125 29.542-25.06 43.793-5.909 10.584-11.06 20.327-15.342 28.957-3.568 7.203-10.475 12.453-17.596 13.394-2.478.373-4.975.596-7.479.671z"/><path d="m1065.83 812.492c-7.45-.028-14.83-1.37-21.82-3.965l-.28-.115-.27-.142c-4.29-2.411-8.88-4.864-13.56-7.404-4.68-2.539-9.36-4.892-14.1-7.132-4.07-1.981-8.49-3.126-13-3.366h-2c-3.238-.133-6.461.482-9.421 1.797-2.572 1.212-4.88 2.918-6.793 5.021-1.585 1.869-3.017 3.863-4.281 5.963l-.1.171-.114.171c-.357.499-.643.942-.885 1.312-.882 1.331-2.083 2.42-3.494 3.168-1.411.747-2.987 1.129-4.584 1.112h-15.955c-.976-.011-1.939-.214-2.836-.598-.896-.385-1.708-.942-2.387-1.642-1.428-1.427-2.233-3.36-2.241-5.377 0-8.702 9.234-25.035 21.022-33.023 8.348-5.706 19.252-10.27 33.049-16.119 7.81-3.309 16.64-7.132 26.35-11.569 12.3-5.705 35.43-18.33 35.68-18.458l.17-.085.18-.086c.25-.114 25.56-11.882 32.16-36.104 2.18-8.031 1.51-14.478-1.99-19.157-6.92-9.272-22.55-9.743-22.7-9.743h-.83c-9.51 0-19.12 3.509-22.59 6.762-6.64 6.233-9.91 12.196-9.69 17.745.25 3.913 2.02 7.574 4.94 10.199l.2.171c2.01 1.812 7.37 6.605 5.87 13.466l-.58 2.625c-.36 1.661-1.28 3.15-2.6 4.215-1.33 1.065-2.98 1.641-4.68 1.633h-.63c-8.94-.713-16.15-5.934-20.8-15.078-2.04-4.042-3.44-8.372-4.16-12.838-.85-6.42-.37-12.948 1.43-19.171 1.87-6.638 5.16-12.793 9.63-18.045 4.85-5.62 10.91-10.076 17.71-13.038 6.54-2.938 16.37-4.279 23.22-4.279h2.37c7.71.27 15.31 1.928 22.44 4.893 6.11 2.574 11.77 6.124 16.75 10.513 4.43 4.104 8.03 9.013 10.62 14.464 2.42 5.055 3.96 10.487 4.55 16.062 1.56 11.254.43 21.297-3.34 29.856-3.91 8.901-7.95 16.104-15 22.366-7.4 6.468-15.62 11.94-24.44 16.276-9.04 4.522-18.44 8.873-27.99 12.938-8.28 3.509-16.51 7.133-24.56 10.727 1.31.514 2.65 1.056 4.14 1.669l1.55.642c4.1 1.683 9.61 3.752 13.25 5.135l1.87.699c6.74 2.145 13.75 3.382 20.82 3.681 4.17 0 5.34-.814 5.38-.842 3.31-2.36 6.2-5.253 8.56-8.559 1.77-2.396 4.07-5.52 6.14-8.559.86-1.265 2.01-2.298 3.37-3.005 1.35-.708 2.86-1.067 4.39-1.046 2.81.033 5.5 1.129 7.54 3.067l3.15 2.924c4.58 4.28 5.91 10.941 3.13 15.863-2.53 4.498-5.47 8.748-8.79 12.695-4.57 5.488-10.16 10.041-16.46 13.409-6.69 3.474-14.14 5.238-21.68 5.135z"/><path d="m686.544 445.136c14.599 7.518 8.077 58.157-26.316 43.436-6.965-2.996-13.458-16.476-1.756-31.867 12.944-17.018 19.894-15.777 28.072-11.569z"/><path d="m717.613 522.407c-18.625 27.103-34.723 60.254-42.001 76.059-1.663-12.002-1.374-24.194.856-36.104 5.167-26.518 3.154-49.726-15.427-49.726-21.878 0-17.026 74.604-57.827 74.604-38.69 0-62.966-37.516-75.824-66.003 32.824-23.579 99.6-72.749 123.861-88.169 27.829-17.702 29.984-41.752 14.985-41.752s-20.58-2.554-28.971 0c-7.307.656-66.133 56.345-103.781 92.719 7.45-37.187 14.143-71.223 15.313-78.455 2.712-16.376-19.851-14.593-19.851-14.593-2.8.015-5.51.986-7.681 2.753-2.17 1.768-3.67 4.224-4.25 6.962-1.327 5.705-33.623 161.061-40.145 192.671-1.263 5.618-1.89 11.36-1.87 17.118 0 9.557 6.408 14.792 17.468 14.792s13.344-7.817 18.952-32.637c.957-4.279 4.053-19.286 8.107-39.128 12.844 33.536 35.678 70.667 73.34 70.667 19.837 0 35.949-9.343 47.923-20.113 6.08 11.34 17.925 21.397 40.93 19.685 16.855-1.298 28.842-23.123 44.484-53.021 13.586-25.976 33.052-57.458 41.858-58.699 15.398-2.111 7.249 19.97 7.249 19.97-24.175 55.076-32.024 93.433-2.854 93.276 20.679-.1 37.762-16.29 55.915-49.484 3.625 10.813 11.417 24.707 27.986 30.555-11.488 6.077-23.847 14.265-40.259 28.244-18.41 15.691-57.299 63.035-60.767 95.929-2.17 20.57 8.905 39.599 29.242 42.637 60.367 8.973 80.304-70.124 106.349-143.459 2.284-6.433 4.282-12.353 6.094-17.987 13.472-.856 23.805 5.991 40.617 9.714 29.969 6.619 69.496 11.041 74.636-28.415 4.41-34.036-45.552-43.764-45.552-66.302s22.535-27.017 34.512-23.893c10.17 2.653 23.44 2.853 23.44-9.985 0-10.941-15.92-13.823-21.67-24.864-6.54-12.552 1.12-15.477 9.99-15.477l58.95-.114c-23 61.723-51.86 148.052-55.47 158.109-5.41 15.177 16.78 20.17 32.95 6.661 11.13-9.286 27.69-26.731 39.96-40.368-1.74 19.385-.14 47.073 23.19 47.002 32.65 0 76.27-50.44 81.46-93.405 13.82-3.21 14.17-10.684 32.53-12.638-23.82 36.574-38.54 88.568-38.54 88.568-6.32 19.186 13.69 18.544 13.69 18.544 20.08 0 17.61-26.446 31.85-56.887 12.21-26.104 29.97-53.706 38.89-54.89 15.7-2.025 3.81 19.728 3.81 19.728-25.47 54.205-34.09 92.007-4.51 91.964 20.73 0 41.79-22.824 49.51-36.489 8.71-15.392.97-21.967-10.4-21.511-7 .285-15.93 8.559-22.58 16.048 28.24-58.114 29.41-100.223-15.83-100.166-7.46 0-14.6 2.853-21.4 7.646-3.9-2.853-9.99-4.95-19.23-4.95-15.77 0-22.5 15.691-38.63 23.636-7.31-35.804-40.9-31.382-57.93-18.957-12.84 9.4-47.53 48.656-71.03 75.602 11.62-29.956 29.72-76.715 43.92-113.261l107.97-.243c7.51 0 11.05-5.705 11.05-11.411s-2.21-12.41-12.37-12.41h-97.21c5.51-14.151 9.64-24.635 11.28-28.715 3.64-9.999-6.05-15.049-13.09-16.233-7.03-1.184-11.7.342-17.44 7.132-3.29 3.923-9.54 18.188-17.18 37.63h-56.94c-34.054 0-47.726 9.686-47.726 21.625 0 21.212 19.138 32.809 14.557 33.408-3.325.442-10.19-1.426-19.238-.884-9.262.584-42.671 4.864-42.671 40.525 0 40.226 47.752 47.601 47.752 64.191 0 7.617-6.736 10.213-25.203 5.634-21.407-5.292-36.364-5.934-47.866-4.436 4.067-15.948 6.993-31.753 10.632-53.036 3.982-23.336-.129-52.935-32.425-52.593-30.968.314-38.832 18.544-59.853 54.819-9.994 17.273-21.453 33.657-34.252 48.97 24.875-57.843 23.148-102.605-20.365-105.173-8.349-.499-17.297 4.508-26.245 12.838-5.823-6.091-14.4-7.902-18.71-8.815-17.368-3.666-19.979 21.168-16.012 32.552 1.613 4.735 6.85 2.439 6.85 2.439 1.276-.32 2.574-.549 3.882-.685.457-.143 2.241-.314.286 2.91zm115.597 180.476c-19.095 39.484-29.499 46.574-41.458 47.073-5.252.242-10.618-4.836-11.246-14.35-1.327-20.342 14.443-48.899 60.396-90.438 7.136-6.476 13.544-11.797 19.281-16.147-10.489 31.567-18.282 55.874-26.973 73.862zm53.118-155.171c-6.022 24.849-11.731 35.362-20.294 35.362-29.441 0-20.522-32.195-16.64-44.049 4.067-12.381 14.871-32.081 35.207-28.885 7.635 1.241 6.808 16.361 1.713 37.572zm237.622 35.961c-12.09 0-13.15-23.736 4.35-48.67 3.35-4.765 6.45-8.83 9.3-12.282 8.86 4.588 18.52 7.439 28.45 8.402-6.74 23.051-22.95 52.536-42.12 52.55zm45.41-70.067c-6.99.048-13.96-.766-20.75-2.425 10.24-8.93 15.97-8.088 18.38-6.719 1.84 1.056 2.58 4.394 2.35 9.144z"/></g></svg>

<svg width="1800" height="1200" viewBox="0 0 1800 1200" fill="none" xmlns="http://www.w3.org/2000/svg">
<g id="kingston12-cover">
<rect width="1800" height="1200" fill="#444955"/>
<g id="kingston-logo-white 1">
<g clip-path="url(#clip0)">
<g id="Layer 2">
<g id="Logo">
<g id="Group">
<g id="12">
<path id="Vector" d="M898.444 817H897.902C895.963 816.942 894.072 816.387 892.41 815.388C890.748 814.389 889.371 812.979 888.412 811.294C887.594 809.758 887.197 808.033 887.263 806.294C887.328 804.555 887.852 802.865 888.783 801.394L954.031 690.13C949.878 692.498 945.468 694.809 941.03 696.992C935.407 699.716 929.684 702.27 924.004 704.566C919.58 706.349 915.185 707.99 910.975 709.402C909.916 709.755 908.808 709.933 907.692 709.93C906.055 709.927 904.442 709.537 902.984 708.794C901.526 708.05 900.264 706.973 899.301 705.65L896.004 701.014C895.114 699.796 894.531 698.382 894.304 696.89C894.077 695.399 894.213 693.875 894.7 692.448C895.187 691.02 896.012 689.731 897.103 688.69C898.195 687.648 899.521 686.885 900.97 686.464C920.679 680.759 934.922 674.71 947.138 666.95C960.739 658.292 972.827 647.993 984.558 638.036C987.385 635.64 990.969 634.321 994.676 634.313C998.028 634.302 1001.29 635.378 1003.98 637.38L1007.61 640.076C1009.56 641.513 1010.9 643.626 1011.37 646C1011.84 648.375 1011.41 650.841 1010.16 652.914C1004.33 662.605 997.583 673.788 989.924 686.464C981.361 700.729 972.584 715.393 963.921 730.185C955.259 744.978 946.796 759.727 938.861 773.978C932.952 784.562 927.801 794.305 923.519 802.935C919.951 810.138 913.044 815.388 905.923 816.329C903.445 816.702 900.948 816.925 898.444 817V817Z" fill="white"/>
<path id="Vector_2" d="M1065.83 812.492C1058.38 812.464 1051 811.122 1044.01 808.527L1043.73 808.412L1043.46 808.27C1039.17 805.859 1034.58 803.406 1029.9 800.866C1025.22 798.327 1020.54 795.974 1015.8 793.734C1011.73 791.753 1007.31 790.608 1002.8 790.368H1000.8C997.562 790.235 994.339 790.85 991.379 792.165C988.807 793.377 986.499 795.083 984.586 797.186C983.001 799.055 981.569 801.049 980.305 803.149L980.205 803.32L980.091 803.491C979.734 803.99 979.448 804.433 979.206 804.803C978.324 806.134 977.123 807.223 975.712 807.971C974.301 808.718 972.725 809.1 971.128 809.083H955.173C954.197 809.072 953.234 808.869 952.337 808.485C951.441 808.1 950.629 807.543 949.95 806.843C948.522 805.416 947.717 803.483 947.709 801.466C947.709 792.764 956.943 776.431 968.731 768.443C977.079 762.737 987.983 758.173 1001.78 752.324C1009.59 749.015 1018.42 745.192 1028.13 740.755C1040.43 735.05 1063.56 722.425 1063.81 722.297L1063.98 722.212L1064.16 722.126C1064.41 722.012 1089.72 710.244 1096.32 686.022C1098.5 677.991 1097.83 671.544 1094.33 666.865C1087.41 657.593 1071.78 657.122 1071.63 657.122H1070.8C1061.29 657.122 1051.68 660.631 1048.21 663.884C1041.57 670.117 1038.3 676.08 1038.52 681.629C1038.77 685.542 1040.54 689.203 1043.46 691.828L1043.66 691.999C1045.67 693.811 1051.03 698.604 1049.53 705.465L1048.95 708.09C1048.59 709.751 1047.67 711.24 1046.35 712.305C1045.02 713.37 1043.37 713.946 1041.67 713.938H1041.04C1032.1 713.225 1024.89 708.004 1020.24 698.86C1018.2 694.818 1016.8 690.488 1016.08 686.022C1015.23 679.602 1015.71 673.074 1017.51 666.851C1019.38 660.213 1022.67 654.058 1027.14 648.806C1031.99 643.186 1038.05 638.73 1044.85 635.768C1051.39 632.83 1061.22 631.489 1068.07 631.489C1068.9 631.489 1069.69 631.489 1070.44 631.489C1078.15 631.759 1085.75 633.417 1092.88 636.382C1098.99 638.956 1104.65 642.506 1109.63 646.895C1114.06 650.999 1117.66 655.908 1120.25 661.359C1122.67 666.414 1124.21 671.846 1124.8 677.421C1126.36 688.675 1125.23 698.718 1121.46 707.277C1117.55 716.178 1113.51 723.381 1106.46 729.643C1099.06 736.111 1090.84 741.583 1082.02 745.919C1072.98 750.441 1063.58 754.792 1054.03 758.857C1045.75 762.366 1037.52 765.99 1029.47 769.584C1030.78 770.098 1032.12 770.64 1033.61 771.253L1035.16 771.895C1039.26 773.578 1044.77 775.647 1048.41 777.03L1050.28 777.729C1057.02 779.874 1064.03 781.111 1071.1 781.41C1075.27 781.41 1076.44 780.596 1076.48 780.568C1079.79 778.208 1082.68 775.315 1085.04 772.009C1086.81 769.613 1089.11 766.489 1091.18 763.45C1092.04 762.185 1093.19 761.152 1094.55 760.445C1095.9 759.737 1097.41 759.378 1098.94 759.399C1101.75 759.432 1104.44 760.528 1106.48 762.466L1109.63 765.39C1114.21 769.67 1115.54 776.331 1112.76 781.253C1110.23 785.751 1107.29 790.001 1103.97 793.948C1099.4 799.436 1093.81 803.989 1087.51 807.357C1080.82 810.831 1073.37 812.595 1065.83 812.492V812.492Z" fill="white"/>
</g>
<g id="Kingston">
<path id="Vector_3" d="M686.544 445.136C701.143 452.654 694.621 503.293 660.228 488.572C653.263 485.576 646.77 472.096 658.472 456.705C671.416 439.687 678.366 440.928 686.544 445.136Z" fill="white"/>
<path id="Vector_4" d="M717.613 522.407C698.988 549.51 682.89 582.661 675.612 598.466C673.949 586.464 674.238 574.272 676.468 562.362C681.635 535.844 679.622 512.636 661.041 512.636C639.163 512.636 644.015 587.24 603.214 587.24C564.524 587.24 540.248 549.724 527.39 521.237C560.214 497.658 626.99 448.488 651.251 433.068C679.08 415.366 681.235 391.316 666.236 391.316C651.237 391.316 645.656 388.762 637.265 391.316C629.958 391.972 571.132 447.661 533.484 484.035C540.934 446.848 547.627 412.812 548.797 405.58C551.509 389.204 528.946 390.987 528.946 390.987C526.146 391.002 523.436 391.973 521.265 393.74C519.095 395.508 517.595 397.964 517.015 400.702C515.688 406.408 483.392 561.763 476.87 593.373C475.607 598.991 474.98 604.733 475 610.491C475 620.048 481.408 625.283 492.468 625.283C503.528 625.283 505.812 617.466 511.42 592.646C512.377 588.367 515.473 573.36 519.527 553.518C532.371 587.054 555.205 624.185 592.867 624.185C612.704 624.185 628.816 614.842 640.79 604.072C646.87 615.412 658.715 625.469 681.72 623.757C698.575 622.459 710.562 600.634 726.204 570.736C739.79 544.76 759.256 513.278 768.062 512.037C783.46 509.926 775.311 532.007 775.311 532.007C751.136 587.083 743.287 625.44 772.457 625.283C793.136 625.183 810.219 608.993 828.372 575.799C831.997 586.612 839.789 600.506 856.358 606.354C844.87 612.431 832.511 620.619 816.099 634.598C797.689 650.289 758.8 697.633 755.332 730.527C753.162 751.097 764.237 770.126 784.574 773.164C844.941 782.137 864.878 703.04 890.923 629.705C893.207 623.272 895.205 617.352 897.017 611.718C910.489 610.862 920.822 617.709 937.634 621.432C967.603 628.051 1007.13 632.473 1012.27 593.017C1016.68 558.981 966.718 549.253 966.718 526.715C966.718 504.177 989.253 499.698 1001.23 502.822C1011.4 505.475 1024.67 505.675 1024.67 492.837C1024.67 481.896 1008.75 479.014 1003 467.973C996.46 455.421 1004.12 452.496 1012.99 452.496L1071.94 452.382C1048.94 514.105 1020.08 600.434 1016.47 610.491C1011.06 625.668 1033.25 630.661 1049.42 617.152C1060.55 607.866 1077.11 590.421 1089.38 576.784C1087.64 596.169 1089.24 623.857 1112.57 623.786C1145.22 623.786 1188.84 573.346 1194.03 530.381C1207.85 527.171 1208.2 519.697 1226.56 517.743C1202.74 554.317 1188.02 606.311 1188.02 606.311C1181.7 625.497 1201.71 624.855 1201.71 624.855C1221.79 624.855 1219.32 598.409 1233.56 567.968C1245.77 541.864 1263.53 514.262 1272.45 513.078C1288.15 511.053 1276.26 532.806 1276.26 532.806C1250.79 587.011 1242.17 624.813 1271.75 624.77C1292.48 624.77 1313.54 601.946 1321.26 588.281C1329.97 572.889 1322.23 566.314 1310.86 566.77C1303.86 567.055 1294.93 575.329 1288.28 582.818C1316.52 524.704 1317.69 482.595 1272.45 482.652C1264.99 482.652 1257.85 485.505 1251.05 490.298C1247.15 487.445 1241.06 485.348 1231.82 485.348C1216.05 485.348 1209.32 501.039 1193.19 508.984C1185.88 473.18 1152.29 477.602 1135.26 490.027C1122.42 499.427 1087.73 538.683 1064.23 565.629C1075.85 535.673 1093.95 488.914 1108.15 452.368L1216.12 452.125C1223.63 452.125 1227.17 446.42 1227.17 440.714C1227.17 435.008 1224.96 428.304 1214.8 428.304H1117.59C1123.1 414.153 1127.23 403.669 1128.87 399.589C1132.51 389.59 1122.82 384.54 1115.78 383.356C1108.75 382.172 1104.08 383.698 1098.34 390.488C1095.05 394.411 1088.8 408.676 1081.16 428.118H1024.22C990.166 428.118 976.494 437.804 976.494 449.743C976.494 470.955 995.632 482.552 991.051 483.151C987.726 483.593 980.861 481.725 971.813 482.267C962.551 482.851 929.142 487.131 929.142 522.792C929.142 563.018 976.894 570.393 976.894 586.983C976.894 594.6 970.158 597.196 951.691 592.617C930.284 587.325 915.327 586.683 903.825 588.181C907.892 572.233 910.818 556.428 914.457 535.145C918.439 511.809 914.328 482.21 882.032 482.552C851.064 482.866 843.2 501.096 822.179 537.371C812.185 554.644 800.726 571.028 787.927 586.341C812.802 528.498 811.075 483.736 767.562 481.168C759.213 480.669 750.265 485.676 741.317 494.006C735.494 487.915 726.917 486.104 722.607 485.191C705.239 481.525 702.628 506.359 706.595 517.743C708.208 522.478 713.445 520.182 713.445 520.182C714.721 519.862 716.019 519.633 717.327 519.497C717.784 519.354 719.568 519.183 717.613 522.407ZM833.21 702.883C814.115 742.367 803.711 749.457 791.752 749.956C786.5 750.198 781.134 745.12 780.506 735.606C779.179 715.264 794.949 686.707 840.903 645.168C848.038 638.692 854.446 633.371 860.183 629.021C849.694 660.588 841.901 684.895 833.21 702.883ZM886.328 547.712C880.306 572.561 874.597 583.074 866.034 583.074C836.593 583.074 845.512 550.879 849.394 539.025C853.461 526.644 864.265 506.944 884.601 510.14C892.236 511.381 891.409 526.501 886.314 547.712H886.328ZM1123.95 583.673C1111.86 583.673 1110.8 559.937 1128.3 535.003C1131.65 530.238 1134.75 526.173 1137.6 522.721C1146.46 527.309 1156.12 530.16 1166.05 531.123C1159.31 554.174 1143.1 583.659 1123.93 583.673H1123.95ZM1169.36 513.606C1162.37 513.654 1155.4 512.84 1148.61 511.181C1158.85 502.251 1164.58 503.093 1166.99 504.462C1168.83 505.518 1169.57 508.856 1169.34 513.606H1169.36Z" fill="white"/>
</g>
</g>
</g>
</g>
</g>
</g>
</g>
<defs>
<clipPath id="clip0">
<rect x="475" y="383" width="850" height="434" fill="white"/>
</clipPath>
</defs>
</svg>
